!!!!SEGMENT: pl-sa--l-1636--111_anonim--kyrie-solenne.krn
!!!cenid: 17xx:818
!!!COM: Anonim
!!!COM-rismID: pe30004985
!!!CDT:
!!!CNT:
!!!OTL: Kyrie solenne
!!!PDT:
!!!AGN: Sacred; Mass section
!!!SMS-siglum: PL-SA
!!!SMS-shelfmark: L 1636
!!!SMS-shelfwork: 111 W
!!!SMS-variant:
!!!SMS-altvar:
!!!NIFC-rismSourceID: 1001087589
!!!NIFC-rismChildID: 1001087589
!!!NIFC-islandoraID:
!!!URL-pdf-islandora:
!!!URL-scan:
!!!ONB-nifc: 60r-60v, skan 0047-0048 (s. 1)
!!!AIN: 1 organ
!!!key:
**kern	**kern
*part1	*part1
*staff2	*staff1
*Iorgan	*Iempty
*I"Organo	*
*I'Org.	*
*clefF4	*clefC1
*k[]	*k[]
*C:	*C:
*M5/1	*M5/1
*met(c)	*met(c)
=1	=1
!	!LO:SIC:o:s:=:v:all\right
*2\right	*
!	!LO:TX:b:t=Kyrie Solenne
2G\	1g\
2E\	.
*	*lig
4D/	1a\
4C/	.
4BB/	.
4AA/	.
*lig	*
1GG/	1b\
*	*Xlig
*	*lig
1GG/	1b\
*Xlig	*
1D\	1a\
*	*Xlig
=2	=2
*	*lig
2C/	1cc\
2AA/	.
1GG/	1b\
4FF/	1a\
4GG/	.
4AA/	.
4BB/	.
1C/	1g\
*	*Xlig
=3	=3
*	*lig
2F\	1a\
2FF/	.
1C/	1g\
4D\	1f/
4E\	.
4F\	.
4G\	.
2A\	1e/
*	*Xlig
2AA/	.
1D\	1d/
=4	=4
*	*lig
4AA/	1a\
4BB/	.
4C/	.
4D/	.
!	!LO:TX:a:t=P:problem=# above
4E\	1g#X\
4D\	.
4E\	.
4EE/	.
*	*Xlig
*	*lig
2AA/	1a\
2A\	.
2G\	1b\
2ryy	.
*	*Xlig
=5	=5
*	*lig
4C\	1cc\
4D\	.
4E\	.
4F\	.
2G\	1b\
2GG/	.
*	*Xlig
*	*lig
1FF/	1a\
1C/	1g\
*	*Xlig
1D\	1f/
=6	=6
*	*lig
2C/	1g\
2GG/	.
4FF/	1a\
4GG/	.
4AA/	.
4BB/	.
*	*Xlig
!!LO:LB:g=original
=7	=7
*	*lig
!	!LO:TX:b:t=leyson
4C/	1g\
4D/	.
4E\	.
4C/	.
4E\	1e/
4D\	.
4E\	.
4EE/	.
*	*Xlig
=8||	=8||
*M2/2	*M2/2
*met(c|)	*met(c|)
*	*lig
!	!LO:TX:b:t=Christe
1AA/	1e/
0D\	1f/
*	*Xlig
.	1d/
=9	=9
*	*lig
2G\	1g\
2E\	.
1D\	1a\
1C/	1cc\
*	*Xlig
*	*lig
1GG/	1b\
4AA/	1a\
4BB/	.
4C/	.
4D/	.
*	*Xlig
=10	=10
*	*lig
1E\	1g#X\
2A\	1a\
4G\	.
4F\	.
*	*Xlig
!	!LO:TX:b:t=e
1E\	1b\
=11	=11
!LO:TX:a:t=H	!LO:TX:b:t=e
*	*lig
1D\	1c/
!	!LO:TX:a:t=g
2G\	1g\
!LO:TX:a:t=f	!
4F\	.
!LO:TX:a:t=e	!
4E\	.
!	!LO:TX:a:t=a
2F\	1a\
2D\	.
*	*Xlig
!LO:SIC:t:=:v:łamana kreska taktowa	!
=12	=12
*	*lig
4C/	1cc\
4BB/	.
2AA/	.
4GG/	1b\
4AA/	.
4BB/	.
4C/	.
*	*Xlig
*	*lig
2D\	1a\
2F\	.
1E/ 1C/	1g#X\
*	*Xlig
!!LO:LB:g=original
=13	=13
*	*lig
2F\	1a\
4E\	.
4D\	.
2C/	1g\
2GG/	.
4D\	1f/
4E\	.
4F\	.
4G\	.
2A\	1e/
2AA/	.
*	*Xlig
1D\	1d/
=14	=14
*	*lig
4AA/	1a\
4BB/	.
4C/	.
4D/	.
!	!LO:TX:a:t=P:problem=# above
4E\	1g#\
4F\	.
2G\	.
1D\	1a\
2G\	1b\
2E\	.
*	*Xlig
=15	=15
*	*lig
2C/	1cc\
2AA/	.
2GG/	1b\
2G\	.
*	*Xlig
4FF/	1a\
4GG/	.
4AA/	.
4BB/	.
*	*lig
1C/	1g\
2F\	1f/
2D\	.
*	*Xlig
*	*lig
2E\	1g\
2C/	.
4D\	1a\
4E\	.
4F\	.
4D\	.
*	*Xlig
*	*lig
4E\	1g\
4D\	.
4C/	.
4BB/	.
!	!LO:TX:b:t=leyson
1AA/	1e/
*	*Xlig
!!LO:LB:g=original
=16||	=16||
!	!LO:TX:b:t=Kyrie
*	*lig
4C/	1cc\
4D/	.
4E\	.
4F\	.
2G\	1b\
2E\	.
*	*Xlig
*	*lig
2C/	1cc\
2AA/	.
1FF/	1dd\
*	*Xlig
=17	=17
*	*lig
0GG/	1dd\
.	1b\
*	*Xlig
*	*lig
4GG/	1dd\
4AA/	.
4BB/	.
4GG/	.
4C\	1cc\
4D\	.
4E\	.
4F\	.
*	*Xlig
=18	=18
*	*lig
2G\	1b\
2GG/	.
2D\	1a\
2F\	.
*	*Xlig
2D/	1g\
2GG/	.
=19	=19
*	*lig
2G\	1b\
2E\	.
4C/	1cc\
4BB/	.
2AA/	.
0GG/	1dd\
.	1b\
*	*Xlig
=20	=20
*	*lig
1GG/	1dd\
2C/	1cc\
2AA/	.
*	*Xlig
*	*lig
4GG/	1b\
4AA/	.
4BB/	.
4C/	.
1D\	1a\
1GG/	1g\
*	*Xlig
!!LO:PB:g=original
=21	=21
1EE/	1a\
*	*lig
1C/	1g\
4D\	1f/
4E\	.
4F\	.
4G\	.
*	*Xlig
*	*lig
2A\	1e/
2AA/	.
1D\	1d/
*	*Xlig
=22	=22
*	*lig
4AA/	1a\
4BB/	.
4C/	.
4D/	.
4E\	1g\
4D\	.
4E\	.
4EE/	.
*	*Xlig
*	*lig
2AA/	1a\
2A\	.
4G\	1b\
4F\	.
4E\	.
4EE/	.
*	*Xlig
=23	=23
*	*lig
2C/	1cc\
2AA/	.
2BB/	1b\
!LO:SIC:o:s:=:v:nieczytelny znak	!
2GG/	.
*	*Xlig
*	*lig
4FF/	1a\
4GG/	.
4AA/	.
4BB/	.
1C/	1g\
*	*Xlig
=24	=24
*	*lig
4F\	1f/
4E\	.
8D\L	.
8E\	.
8F\	.
8D\J	.
4E\	1g\
4D\	.
8C\L	.
8D\	.
8E\	.
8C\J	.
*	*Xlig
2F\	1a\
4E\	.
4D\	.
!	!LO:TX:b:t=leyson
1C/	1g\
==	==
*-	*-
!!!system-decoration: {(s1,s2)}
!!!EED: Leszek Kubiak
!!!EEV: 2020-12-10
!!!ENC: Marcin Jachim
!!!END: 2020-06-14
!!!YEC: Copyright 2022 Narodowy Instytut Fryderyka Chopina (https://polishscores.org)
!!!YEM: License CC-BY-4.0 (https://creativecommons.org/licenses/by/4.0)
